X:1
T:My Last Ol' Dollar
M:2/4
L:1/8
K:C
 z2C-E| G2 G3/2- A/2|G-E DE| C4-| C2G-A| c2 e3/2- d/2| c c2 A| G4-|\
 G2G-A| cc e3/2 d/2| c2 AA| c c3| A/2- G3/2 CE| G2 G3/2- A/2|G-E DE|\
 C4-| C2 z2|
